packages/core/src/svgs/prime.svg

<svg width="24" height="24" viewBox="0 0 24 24" fill="none" xmlns="http://www.w3.org/2000/svg">
<g clip-path="url(#clip0_31_16466)">
<path d="M0 0H24V24H0V0Z" fill="url(#paint0_linear_31_16466)"/>
<path d="M13.2856 5.14307H10.7142V12.6431L11.9999 13.2859L13.2856 12.6431V5.14307ZM6.85707 9.00021H4.28564L5.09993 12.6602C5.11423 12.7219 5.14202 12.7796 5.1813 12.8293C5.22057 12.8789 5.27036 12.9192 5.32707 12.9474L7.2385 13.9074C7.38131 13.9783 7.50149 14.0877 7.58552 14.2232C7.66956 14.3588 7.71413 14.515 7.71422 14.6745V17.5716L10.7142 18.8574V15.2145L8.31422 14.1088C8.19384 14.0525 8.0882 13.969 8.00564 13.8649C7.92308 13.7607 7.86586 13.6388 7.8385 13.5088L6.85707 9.00021ZM13.2856 18.8574V15.2145L15.6856 14.1088C15.806 14.0525 15.9117 13.969 15.9942 13.8649C16.0768 13.7607 16.134 13.6388 16.1614 13.5088L17.1428 9.00021H19.7142L18.8999 12.6602C18.8856 12.7219 18.8578 12.7796 18.8186 12.8293C18.7793 12.8789 18.7295 12.9192 18.6728 12.9474L16.7614 13.9074C16.6186 13.9783 16.4984 14.0877 16.4143 14.2232C16.3303 14.3588 16.2857 14.515 16.2856 14.6745V17.5716L13.2856 18.8574Z" fill="#ED1651"/>
</g>
<defs>
<linearGradient id="paint0_linear_31_16466" x1="4.46571" y1="4.16143" x2="29.2071" y2="32.58" gradientUnits="userSpaceOnUse">
<stop stop-color="#1A1E21"/>
<stop offset="1" stop-color="#06060A"/>
</linearGradient>
<clipPath id="clip0_31_16466">
<rect width="24" height="24" fill="white"/>
</clipPath>
</defs>
</svg>

<svg xmlns="http://www.w3.org/2000/svg" width="24" height="24" fill="none" viewBox="0 0 24 24"><g clip-path="url(#a)"><path fill="url(#b)" d="M0 0h24v24H0z"/><path fill="#ED1651" d="M13.286 5.143h-2.572v7.5l1.286.643 1.286-.643zM6.857 9H4.286l.814 3.66a.43.43 0 0 0 .227.287l1.912.96a.86.86 0 0 1 .475.768v2.897l3 1.285v-3.642l-2.4-1.106a.86.86 0 0 1-.476-.6zm6.429 9.857v-3.642l2.4-1.106a.86.86 0 0 0 .475-.6L17.143 9h2.571l-.814 3.66a.43.43 0 0 1-.227.287l-1.912.96a.86.86 0 0 0-.475.768v2.897z"/></g><defs><linearGradient id="b" x1="4.466" x2="29.207" y1="4.161" y2="32.58" gradientUnits="userSpaceOnUse"><stop stop-color="#1A1E21"/><stop offset="1" stop-color="#06060A"/></linearGradient><clipPath id="a"><path fill="#fff" d="M0 0h24v24H0z"/></clipPath></defs></svg>
